icon-svg/rooms-carport.svg

<svg xmlns="http://www.w3.org/2000/svg" fill="#44739e" viewBox="0 0 24 24"><path d="M25.427 17.648c.35.165.573.517.573.903v5.414c0 .551-.447.998-1 .998h-1v1.525c0 .824-.675 1.498-1.5 1.498h-1c-.825 0-1.5-.674-1.5-1.498v-1.525h-8v1.498c0 .823-.675 1.497-1.5 1.497h-1c-.825 0-1.5-.674-1.5-1.497v-1.498H7c-.553 0-1-.447-1-.998v-5.414c0-.386.223-.738.573-.903l1.003-.473a.993.993 0 0 0 .541-.653l1.498-5.788c.114-.44.513-.748.969-.748h10.832c.456 0 .855.308.969.748l1.498 5.788a.993.993 0 0 0 .541.653zM22.5 22c.828 0 1.5-.671 1.5-1.498s-.672-1.497-1.5-1.497-1.5.67-1.5 1.497S21.672 22 22.5 22M18 22c.55 0 1-.449 1-.998 0-.55-.45-.999-1-.999h-4c-.55 0-1 .449-1 .999 0 .549.45.998 1 .998zm-8.5-3c-.828 0-1.5.671-1.5 1.498s.672 1.497 1.5 1.497 1.5-.67 1.5-1.497S10.328 19 9.5 19m.537-3.268c-.182.635.323 1.26 1.018 1.26h9.89c.695 0 1.2-.625 1.018-1.26l-.859-2.996c-.125-.434-.541-.736-1.017-.736h-8.174c-.476 0-.892.302-1.017.736zM31 4c.553 0 1 .447 1 1v22c0 .553-.447 1-1 1s-1-.447-1-1V9c0-.553-.447-1-1-1H3c-.553 0-1 .447-1 1v18c0 .553-.447 1-1 1s-1-.447-1-1V5c0-.553.447-1 1-1z"/></svg>

<?xml version="1.0" encoding="UTF-8"?>
<svg width="32px" height="32px" viewBox="0 0 32 32" version="1.1" fill="#44739e" xmlns="http://www.w3.org/2000/svg" xmlns:xlink="http://www.w3.org/1999/xlink">
            <path d="M25.427,17.648 C25.777,17.813 26,18.165 26,18.551 L26,23.965 C26,24.516 25.553,24.963 25,24.963 L24,24.963 L24,26.488 C24,27.312 23.325,27.986 22.5,27.986 L21.5,27.986 C20.675,27.986 20,27.312 20,26.488 L20,24.963 L12,24.963 L12,26.461 C12,27.284 11.325,27.958 10.5,27.958 L9.5,27.958 C8.675,27.958 8,27.284 8,26.461 L8,24.963 L7,24.963 C6.447,24.963 6,24.516 6,23.965 L6,18.551 C6,18.165 6.223,17.813 6.573,17.648 L7.576,17.175 C7.845,17.049 8.043,16.81 8.117,16.522 L9.615,10.734 C9.729,10.294 10.128,9.986 10.584,9.986 L21.416,9.986 C21.872,9.986 22.271,10.294 22.385,10.734 L23.883,16.522 C23.957,16.81 24.155,17.049 24.424,17.175 L25.427,17.648 Z M22.5,22 C23.328,22 24,21.329 24,20.502 C24,19.675 23.328,19.005 22.5,19.005 C21.672,19.005 21,19.675 21,20.502 C21,21.329 21.672,22 22.5,22 Z M18,22 C18.55,22 19,21.551 19,21.002 C19,20.452 18.55,20.003 18,20.003 L14,20.003 C13.45,20.003 13,20.452 13,21.002 C13,21.551 13.45,22 14,22 L18,22 Z M9.5,19 C8.672,19 8,19.671 8,20.498 C8,21.325 8.672,21.995 9.5,21.995 C10.328,21.995 11,21.325 11,20.498 C11,19.671 10.328,19 9.5,19 Z M10.037,15.732 C9.855,16.367 10.36,16.992 11.055,16.992 L20.945,16.992 C21.64,16.992 22.145,16.367 21.963,15.732 L21.104,12.736 C20.979,12.302 20.563,12 20.087,12 L11.913,12 C11.437,12 11.021,12.302 10.896,12.736 L10.037,15.732 Z M31,4 C31.553,4 32,4.447 32,5 L32,27 C32,27.553 31.553,28 31,28 C30.447,28 30,27.553 30,27 L30,9 C30,8.447 29.553,8 29,8 L3,8 C2.447,8 2,8.447 2,9 L2,27 C2,27.553 1.553,28 1,28 C0.447,28 0,27.553 0,27 L0,5 C0,4.447 0.447,4 1,4 L2,4 L31,4 Z"></path>
</svg>
